X:130
T:N\"ar ja' gick {\aa} fria'
R:sl\"angpolska
A:N\"arke
Z:id:hn-sp-130
M:3/4
L:1/16
K:G
D2 | G3A B2Bc B2G2 | B3c d2de d2B2 |
w:{\AA} n\"ar ja' gick {\aa}* fri-a' te min f\"or-sta* flec-ka,
d3d c2c2 B2B2 | AFAB G6 :|
w:d{\aa} va' ho' s{\aa} dum s{\aa} ho'* sa'* nej.
|: A2 | B2Bc BBAA A2A2 | B2Bc d2cB A2A2 |
w:{\AA} n\"ar in-te flec-ke-ra vill ha mig, d{\aa} f{\aa}r v\"al gum-me-ra ta mig,
w:{\AA} n\"ar in-te gum-me-ra vill ha mig, d{\aa} f{\aa}r v\"al flec-ke-ra ta mig,
B2AB c2dc B2cB | AFAB G6 :|
w:hopp fal-le-ra ral-la ra ral-la ral-la ral-lan lej.
w:och d{\aa}* f{\aa}r dom* {\aa}t-er-*ta* sitt* nej.

